X: 120
T: REEL: Torn Jacket
C: C: Connie O'Connell; S: Tommy Guihen; Connie O'Connell
C: Set Leaders: Mars, Anton
Z: Anton Zille ed.; Mars at The Session
N: https://thesession.org/members/26966/sets/94278
R: Reel
M: 4/4
L: 1/8
Q: 1/2=100
K: Dmaj
|:~F3A d2 ed|cAAB cd e2|~F3A dfed|cAGE EDDE|
~F3A dfed|cA~A2 B/c/d ec|dcde fded|cAGE ED D2:||
|:FAdf ~a3f|g2 gf gfed|cA~A2 B/c/d ef|gfed cAGE|
FAdf ~a3f|~g3a gfef|g2ba gfed|cAGE ED D2:||

